dashboard/static/img/settings.svg

<?xml version="1.0" encoding="UTF-8"?>
<svg width="20px" height="20px" viewBox="0 0 20 20" version="1.1" xmlns="http://www.w3.org/2000/svg" xmlns:xlink="http://www.w3.org/1999/xlink">
    <!-- Generator: Sketch 43.2 (39069) - http://www.bohemiancoding.com/sketch -->
    <title>icons / settings-white</title>
    <desc>Created with Sketch.</desc>
    <defs></defs>
    <g id="Symbols" stroke="none" stroke-width="1" fill="none" fill-rule="evenodd">
        <g id="icons-/-settings-white" fill="#FFFFFF">
            <path d="M18.75,8.35546875 C19.0494807,8.40755234 19.332681,8.55403525 19.5996094,8.79492188 C19.8665378,9.0358085 20,9.33202949 20,9.68359375 L20,10.9335938 C20,11.2721371 19.8665378,11.5455719 19.5996094,11.7539062 C19.332681,11.9622406 19.0494807,12.1054684 18.75,12.1835938 L17.1289062,12.5742188 C17.0638018,12.7695322 16.9954431,12.9550772 16.9238281,13.1308594 C16.8522132,13.3066415 16.7708338,13.4791658 16.6796875,13.6484375 L17.5390625,15.09375 C17.7083342,15.354168 17.8124998,15.6536441 17.8515625,15.9921875 C17.8906252,16.3307309 17.7864596,16.6236967 17.5390625,16.8710938 L16.6601562,17.75 C16.4127592,17.9973971 16.113283,18.1113282 15.7617188,18.0917969 C15.4101545,18.0722655 15.104168,17.9778654 14.84375,17.8085938 L13.4375,16.9101562 C13.2552074,17.0013025 13.0729176,17.0859371 12.890625,17.1640625 C12.7083324,17.2421879 12.5130219,17.3138018 12.3046875,17.3789062 L11.953125,19 C11.9010414,19.2994807 11.7545585,19.582681 11.5136719,19.8496094 C11.2727853,20.1165378 10.9765643,20.25 10.625,20.25 L9.375,20.25 C9.03645664,20.25 8.76302187,20.1165378 8.5546875,19.8496094 C8.34635313,19.582681 8.20312539,19.2994807 8.125,19 L7.734375,17.3984375 C7.52604063,17.333333 7.31770937,17.258464 7.109375,17.1738281 C6.90104063,17.0891923 6.69921973,16.9947922 6.50390625,16.890625 L5.05859375,17.8085938 C4.81119668,17.9778654 4.50846533,18.0722655 4.15039062,18.0917969 C3.79231592,18.1113282 3.49609492,17.9973971 3.26171875,17.75 L2.36328125,16.8710938 C2.12890508,16.6236967 2.0312498,16.3307309 2.0703125,15.9921875 C2.1093752,15.6536441 2.20703047,15.354168 2.36328125,15.09375 L3.28125,13.5703125 C3.20312461,13.4140617 3.12825557,13.2545581 3.05664062,13.0917969 C2.98502568,12.9290356 2.92317734,12.7565113 2.87109375,12.5742188 L1.25,12.1835938 C0.950519336,12.1054684 0.667319043,11.9622406 0.400390625,11.7539062 C0.133462207,11.5455719 0,11.2721371 0,10.9335938 L0,9.68359375 C0,9.33202949 0.133462207,9.0358085 0.400390625,8.79492188 C0.667319043,8.55403525 0.950519336,8.40755234 1.25,8.35546875 L2.8515625,8.00390625 C2.90364609,7.82161367 2.96874961,7.63932383 3.046875,7.45703125 C3.12500039,7.27473867 3.20312461,7.09895918 3.28125,6.9296875 L2.36328125,5.40625 C2.20703047,5.14583203 2.1093752,4.84635586 2.0703125,4.5078125 C2.0312498,4.16926914 2.12890508,3.87630332 2.36328125,3.62890625 L3.26171875,2.75 C3.49609492,2.50260293 3.79231592,2.38867178 4.15039062,2.40820312 C4.50846533,2.42773447 4.81119668,2.52213457 5.05859375,2.69140625 L6.50390625,3.609375 C6.69921973,3.50520781 6.89778545,3.41080771 7.09960938,3.32617188 C7.3014333,3.24153604 7.50650938,3.16666699 7.71484375,3.1015625 L8.125,1.5 C8.19010449,1.20051934 8.32682188,0.917319043 8.53515625,0.650390625 C8.74349062,0.383462207 9.02343574,0.25 9.375,0.25 L10.625,0.25 C10.9765643,0.25 11.2695301,0.383462207 11.5039062,0.650390625 C11.7382824,0.917319043 11.8880205,1.19400898 11.953125,1.48046875 L12.3046875,3.12109375 C12.500001,3.18619824 12.6920563,3.25781211 12.8808594,3.3359375 C13.0696624,3.41406289 13.2552074,3.49869746 13.4375,3.58984375 L14.84375,2.69140625 C15.104168,2.52213457 15.4101545,2.42773447 15.7617188,2.40820312 C16.113283,2.38867178 16.4127592,2.50260293 16.6601562,2.75 L17.5390625,3.62890625 C17.7864596,3.87630332 17.8906252,4.16926914 17.8515625,4.5078125 C17.8124998,4.84635586 17.7083342,5.14583203 17.5390625,5.40625 L16.6796875,6.8515625 C16.7708338,7.03385508 16.8587235,7.2194001 16.9433594,7.40820312 C17.0279952,7.59700615 17.0963539,7.79557188 17.1484375,8.00390625 L18.75,8.35546875 Z M18.75,10.8359375 L18.7695312,9.72265625 C18.7565104,9.70963535 18.7239586,9.68684912 18.671875,9.65429688 C18.6197914,9.62174463 18.5611982,9.5989584 18.4960938,9.5859375 L16.171875,9.05859375 L15.9570312,8.375 C15.9179686,8.21874922 15.8658857,8.06250078 15.8007812,7.90625 C15.7356768,7.74999922 15.6575525,7.58724043 15.5664062,7.41796875 L15.2539062,6.79296875 L16.484375,4.7421875 C16.5234377,4.69010391 16.5527343,4.63802109 16.5722656,4.5859375 C16.591797,4.53385391 16.6015625,4.4947918 16.6015625,4.46875 L15.78125,3.66796875 C15.7421873,3.66796875 15.69987,3.6744791 15.6542969,3.6875 C15.6087237,3.7005209 15.5664064,3.72005195 15.5273438,3.74609375 L13.515625,5.03515625 L12.8710938,4.703125 C12.714843,4.62499961 12.5585945,4.55013057 12.4023438,4.47851562 C12.246093,4.40690068 12.0833342,4.3515627 11.9140625,4.3125 L11.2304688,4.078125 L10.7226562,1.71484375 C10.7096354,1.66276016 10.6901043,1.61393252 10.6640625,1.56835938 L10.625,1.5 L9.47265625,1.5 C9.44661445,1.5260418 9.42057305,1.56510391 9.39453125,1.6171875 C9.36848945,1.66927109 9.3489584,1.73437461 9.3359375,1.8125 L8.76953125,4.078125 L8.10546875,4.29296875 C7.93619707,4.34505234 7.76692793,4.40690068 7.59765625,4.47851562 C7.42838457,4.55013057 7.25911543,4.63150996 7.08984375,4.72265625 L6.4453125,5.0546875 L4.35546875,3.7265625 L4.2578125,3.67773438 C4.2187498,3.65820303 4.1796877,3.64192715 4.140625,3.62890625 L3.3203125,4.44921875 C3.3203125,4.48828145 3.33007803,4.53385391 3.34960938,4.5859375 C3.36914072,4.63802109 3.3984373,4.69661426 3.4375,4.76171875 L4.70703125,6.87109375 L4.39453125,7.4765625 C4.31640586,7.64583418 4.24804717,7.80208262 4.18945312,7.9453125 C4.13085908,8.08854238 4.08203145,8.23177012 4.04296875,8.375 L3.828125,9.05859375 L1.46484375,9.5859375 C1.42578105,9.5989584 1.38346377,9.61848945 1.33789062,9.64453125 C1.29231748,9.67057305 1.2630209,9.68359375 1.25,9.68359375 L1.25,10.8359375 C1.2760418,10.8619793 1.31510391,10.8847655 1.3671875,10.9042969 C1.41927109,10.9238282 1.48437461,10.9401041 1.5625,10.953125 L3.84765625,11.5390625 L4.0625,12.203125 C4.1015627,12.333334 4.15039033,12.4667962 4.20898438,12.6035156 C4.26757842,12.7402351 4.33593711,12.8802076 4.4140625,13.0234375 L4.70703125,13.6289062 L3.4375,15.7578125 C3.3984373,15.8098961 3.36914072,15.8619789 3.34960938,15.9140625 C3.33007803,15.9661461 3.3203125,16.0117186 3.3203125,16.0507812 L4.140625,16.8515625 C4.1796877,16.8515625 4.22200498,16.841797 4.26757812,16.8222656 C4.31315127,16.8027343 4.35546855,16.779948 4.39453125,16.7539062 L6.4453125,15.4453125 L7.08984375,15.7773438 C7.25911543,15.86849 7.42838457,15.9498694 7.59765625,16.0214844 C7.76692793,16.0930993 7.93619707,16.1549477 8.10546875,16.2070312 L8.76953125,16.421875 L9.35546875,18.7265625 C9.36848965,18.791667 9.38476553,18.847005 9.40429688,18.8925781 C9.42382822,18.9381513 9.44661445,18.9739582 9.47265625,19 L10.6054688,19 C10.6184896,18.9869791 10.6412759,18.9544273 10.6738281,18.9023438 C10.7063804,18.8502602 10.7291666,18.7981773 10.7421875,18.7460938 L11.25,16.421875 L11.9335938,16.1875 C12.0898445,16.1354164 12.246093,16.0768232 12.4023438,16.0117188 C12.5585945,15.9466143 12.714843,15.8750004 12.8710938,15.796875 L13.515625,15.4648438 L15.5664062,16.7734375 L15.6640625,16.8222656 C15.7031252,16.841797 15.7421873,16.8580729 15.78125,16.8710938 L16.6015625,16.0507812 C16.6015625,16.0117186 16.591797,15.9661461 16.5722656,15.9140625 C16.5527343,15.8619789 16.5234377,15.8033857 16.484375,15.7382812 L15.2539062,13.7070312 L15.5664062,13.0820312 C15.6445316,12.9388014 15.7128903,12.7923185 15.7714844,12.6425781 C15.8300784,12.4928378 15.8854164,12.3398445 15.9375,12.1835938 L16.1523438,11.5390625 L18.4765625,10.953125 C18.541667,10.9401041 18.597005,10.9238282 18.6425781,10.9042969 C18.6881513,10.8847655 18.7239582,10.8619793 18.75,10.8359375 Z M10,6.5 C11.0416719,6.5 11.9303349,6.86457969 12.6660156,7.59375 C13.4016964,8.32292031 13.7695312,9.20832812 13.7695312,10.25 C13.7695312,11.2916719 13.4016964,12.1770797 12.6660156,12.90625 C11.9303349,13.6354203 11.0416719,14 10,14 C8.97134902,14 8.08919639,13.6354203 7.35351562,12.90625 C6.61783486,12.1770797 6.25,11.2916719 6.25,10.25 C6.25,9.20832812 6.61783486,8.32292031 7.35351562,7.59375 C8.08919639,6.86457969 8.97134902,6.5 10,6.5 Z M10,12.75 C10.6901076,12.75 11.2792944,12.5058618 11.7675781,12.0175781 C12.2558618,11.5292944 12.5,10.9401076 12.5,10.25 C12.5,9.55989238 12.2558618,8.97070557 11.7675781,8.48242188 C11.2792944,7.99413818 10.6901076,7.75 10,7.75 C9.30989238,7.75 8.72070557,7.99413818 8.23242188,8.48242188 C7.74413818,8.97070557 7.5,9.55989238 7.5,10.25 C7.5,10.9401076 7.74413818,11.5292944 8.23242188,12.0175781 C8.72070557,12.5058618 9.30989238,12.75 10,12.75 Z" id="settings---simple-line-icons"></path>
        </g>
    </g>
</svg>

<svg width="20" height="20" xmlns="http://www.w3.org/2000/svg"><path d="M18.75 8.355c.3.053.583.199.85.44.267.24.4.537.4.889v1.25a.99.99 0 0 1-.4.82c-.267.208-.55.351-.85.43l-1.621.39a9.12 9.12 0 0 1-.205.557 5.344 5.344 0 0 1-.244.517l.86 1.446c.168.26.272.56.312.898.039.339-.066.632-.313.88l-.879.878a1.129 1.129 0 0 1-.898.342 1.84 1.84 0 0 1-.918-.283l-1.406-.899c-.183.091-.365.176-.547.254-.183.078-.378.15-.586.215L11.953 19c-.052.3-.198.583-.44.85-.24.267-.536.4-.888.4h-1.25a.99.99 0 0 1-.82-.4 2.332 2.332 0 0 1-.43-.85l-.39-1.602a8.002 8.002 0 0 1-.626-.224 6.421 6.421 0 0 1-.605-.283l-1.445.918c-.248.169-.55.263-.909.283a1.084 1.084 0 0 1-.888-.342l-.899-.879a1.047 1.047 0 0 1-.293-.879c.04-.338.137-.638.293-.898l.918-1.524a10.757 10.757 0 0 1-.224-.478 4.038 4.038 0 0 1-.186-.518l-1.621-.39a2.332 2.332 0 0 1-.85-.43.99.99 0 0 1-.4-.82v-1.25c0-.352.133-.648.4-.89.267-.24.55-.386.85-.439l1.602-.351c.052-.182.117-.365.195-.547.078-.182.156-.358.234-.527l-.918-1.524a2.218 2.218 0 0 1-.293-.898c-.039-.339.059-.632.293-.88l.899-.878c.234-.247.53-.361.888-.342.358.02.661.114.909.283l1.445.918a7.1 7.1 0 0 1 1.21-.507L8.126 1.5c.065-.3.202-.583.41-.85.208-.267.488-.4.84-.4h1.25c.352 0 .645.133.879.4.234.267.384.544.45.83l.35 1.641a8.71 8.71 0 0 1 1.133.469l1.407-.899c.26-.169.566-.263.918-.283.351-.02.65.095.898.342l.88.879c.246.247.35.54.312.879-.04.338-.144.638-.313.898l-.86 1.446c.092.182.18.367.264.556.085.189.153.388.205.596l1.602.351zm0 2.48l.02-1.112a.687.687 0 0 0-.098-.069.521.521 0 0 0-.176-.068l-2.324-.527-.215-.684a3.298 3.298 0 0 0-.156-.469 5.478 5.478 0 0 0-.235-.488l-.312-.625 1.23-2.05a.632.632 0 0 0 .088-.157.374.374 0 0 0 .03-.117l-.82-.801a.464.464 0 0 0-.255.078l-2.011 1.29-.645-.333a15.34 15.34 0 0 0-.469-.224 2.539 2.539 0 0 0-.488-.167l-.684-.234-.507-2.363a.575.575 0 0 0-.059-.147l-.039-.068H9.473a.454.454 0 0 0-.078.117.694.694 0 0 0-.06.196L8.77 4.078l-.665.215c-.169.052-.338.114-.507.186-.17.071-.339.153-.508.244l-.645.332-2.09-1.328-.097-.05a.895.895 0 0 0-.117-.048l-.82.82c0 .04.01.085.029.137.02.052.048.11.087.176l1.27 2.11-.312.605c-.079.169-.147.325-.206.468a3.72 3.72 0 0 0-.146.43l-.215.684-2.363.527a.716.716 0 0 0-.127.059.265.265 0 0 1-.088.039v1.152a.327.327 0 0 0 .117.068c.052.02.117.036.196.05l2.285.585.215.664c.039.13.087.264.146.4.059.137.127.277.205.42l.293.606-1.27 2.129a.632.632 0 0 0-.087.156.398.398 0 0 0-.03.137l.82.8c.04 0 .082-.01.128-.029a.787.787 0 0 0 .127-.068l2.05-1.309.645.332c.17.091.338.173.508.244.169.072.338.134.507.186l.665.215.585 2.305c.013.065.03.12.05.166a.34.34 0 0 0 .068.107h1.132a.687.687 0 0 0 .069-.098.545.545 0 0 0 .068-.156l.508-2.324.684-.235a6.854 6.854 0 0 0 .937-.39l.645-.332 2.05 1.308.098.05c.04.019.078.035.117.048l.82-.82c0-.04-.01-.085-.029-.137a1.101 1.101 0 0 0-.088-.176l-1.23-2.031.312-.625c.079-.143.147-.29.205-.44.06-.15.114-.302.166-.458l.215-.645 2.325-.586a.847.847 0 0 0 .166-.049.34.34 0 0 0 .107-.068zM10 6.5c1.042 0 1.93.365 2.666 1.094.736.729 1.104 1.614 1.104 2.656s-.368 1.927-1.104 2.656C11.93 13.636 11.042 14 10 14c-1.029 0-1.91-.365-2.646-1.094-.736-.729-1.104-1.614-1.104-2.656s.368-1.927 1.104-2.656C8.089 6.864 8.97 6.5 10 6.5zm0 6.25c.69 0 1.28-.244 1.768-.732a2.409 2.409 0 0 0 .732-1.768c0-.69-.244-1.28-.732-1.768A2.409 2.409 0 0 0 10 7.75c-.69 0-1.28.244-1.768.732A2.409 2.409 0 0 0 7.5 10.25c0 .69.244 1.28.732 1.768A2.409 2.409 0 0 0 10 12.75z" fill="#FFF" fill-rule="evenodd"/></svg>
